src/assets/Playstore.svg

<svg width="259" height="77" viewBox="0 0 259 77" fill="none" xmlns="http://www.w3.org/2000/svg">
<path d="M248.207 76.9998H10.608C5.37619 76.9998 1.11328 72.6827 1.11328 67.3846V9.65424C1.11328 4.35608 5.37619 0.0390625 10.608 0.0390625H248.207C253.44 0.0390625 257.702 4.35608 257.702 9.65424V67.3846C257.702 72.6827 253.401 76.9998 248.207 76.9998Z" fill="#242424"/>
<path d="M248.208 1.53449C252.625 1.53449 256.191 5.14508 256.191 9.61909V67.3494C256.191 71.8235 252.625 75.4341 248.208 75.4341H10.608C6.19002 75.4341 2.62469 71.8235 2.62469 67.3494V9.61909C2.62469 5.14508 6.19002 1.53449 10.608 1.53449H248.208ZM248.208 0.00390625H10.608C5.3762 0.00390625 1.11328 4.32092 1.11328 9.61909V67.3494C1.11328 72.6477 5.3762 76.9646 10.608 76.9646H248.208C253.439 76.9646 257.702 72.6477 257.702 67.3494V9.61909C257.702 4.32092 253.401 0.00390625 248.208 0.00390625Z" fill="white"/>
<path d="M91.2207 19.7411C91.2207 21.3503 90.7557 22.6454 89.8256 23.5873C88.7405 24.7253 87.3454 25.314 85.6403 25.314C84.0126 25.314 82.5787 24.7253 81.4548 23.5873C80.2921 22.4098 79.7109 20.997 79.7109 19.2702C79.7109 17.5434 80.2921 16.1305 81.4548 14.9924C82.6174 13.8543 84.0126 13.2656 85.6403 13.2656C86.4541 13.2656 87.2292 13.4226 87.9655 13.7366C88.7017 14.0505 89.3218 14.4823 89.7482 15.0317L88.7405 16.0521C87.9655 15.1494 86.9578 14.6785 85.6015 14.6785C84.4 14.6785 83.3537 15.1101 82.5012 15.9736C81.6098 16.837 81.1836 17.9359 81.1836 19.3095C81.1836 20.6831 81.6098 21.7819 82.5012 22.6454C83.3925 23.5087 84.4388 23.9405 85.6015 23.9405C86.8804 23.9405 87.9267 23.5087 88.7793 22.6454C89.3218 22.0959 89.6706 21.3109 89.7482 20.2906H85.6015V18.9171H91.1045C91.2207 19.1525 91.2207 19.4272 91.2207 19.7411Z" fill="white" stroke="white" stroke-width="0.199309" stroke-miterlimit="10"/>
<path d="M99.986 14.913H94.793V18.5628H99.4822V19.9364H94.793V23.5864H99.986V24.9992H93.3203V13.4609H99.986C99.986 13.5002 99.986 14.913 99.986 14.913Z" fill="white" stroke="white" stroke-width="0.199309" stroke-miterlimit="10"/>
<path d="M106.174 25.0382H104.701V14.9129H101.523V13.5H109.352V14.9129H106.174V25.0382Z" fill="white" stroke="white" stroke-width="0.199309" stroke-miterlimit="10"/>
<path d="M115.012 25.0382V13.5H116.484V25.0382H115.012Z" fill="white" stroke="white" stroke-width="0.199309" stroke-miterlimit="10"/>
<path d="M122.996 25.0382H121.524V14.9129H118.346V13.5H126.174V14.9129H122.996V25.0382Z" fill="white" stroke="white" stroke-width="0.199309" stroke-miterlimit="10"/>
<path d="M141.02 23.5482C139.896 24.7255 138.501 25.3143 136.834 25.3143C135.167 25.3143 133.773 24.7255 132.649 23.5482C131.525 22.3708 130.982 20.958 130.982 19.2704C130.982 17.5828 131.525 16.1308 132.649 14.9927C133.773 13.8153 135.167 13.2266 136.834 13.2266C138.501 13.2266 139.896 13.8153 141.02 14.9927C142.144 16.17 142.725 17.5828 142.725 19.2704C142.686 20.958 142.144 22.3708 141.02 23.5482ZM133.734 22.567C134.586 23.4304 135.594 23.8621 136.834 23.8621C138.035 23.8621 139.082 23.4304 139.934 22.567C140.787 21.7036 141.213 20.6047 141.213 19.2311C141.213 17.8575 140.787 16.7587 139.934 15.8952C139.082 15.0319 138.074 14.6001 136.834 14.6001C135.594 14.6001 134.586 15.0319 133.734 15.8952C132.881 16.7587 132.455 17.8575 132.455 19.2311C132.455 20.6047 132.881 21.7036 133.734 22.567Z" fill="white" stroke="white" stroke-width="0.199309" stroke-miterlimit="10"/>
<path d="M144.734 25.0382V13.5H146.518L152.059 22.4873H152.137L152.059 20.2502V13.5H153.532V25.0382H152.02L146.208 15.6193H146.13L146.208 17.8563V25.0382H144.734Z" fill="white" stroke="white" stroke-width="0.199309" stroke-miterlimit="10"/>
<path d="M130.599 41.8759C126.143 41.8759 122.5 45.3295 122.5 50.0782C122.5 54.7877 126.143 58.2805 130.599 58.2805C135.056 58.2805 138.737 54.7877 138.737 50.0782C138.737 45.3295 135.095 41.8759 130.599 41.8759ZM130.599 55.0231C128.158 55.0231 126.026 52.9824 126.026 50.0782C126.026 47.1348 128.119 45.1333 130.599 45.1333C133.08 45.1333 135.172 47.1348 135.172 50.0782C135.172 52.9824 133.041 55.0231 130.599 55.0231ZM112.928 41.8759C108.471 41.8759 104.828 45.3295 104.828 50.0782C104.828 54.7877 108.471 58.2805 112.928 58.2805C117.384 58.2805 121.027 54.7877 121.027 50.0782C121.027 45.3295 117.384 41.8759 112.928 41.8759ZM112.928 55.0231C110.486 55.0231 108.355 52.9824 108.355 50.0782C108.355 47.1348 110.486 45.1333 112.928 45.1333C115.369 45.1333 117.501 47.1348 117.501 50.0782C117.462 52.9824 115.369 55.0231 112.928 55.0231ZM91.8456 44.3877V47.8804H100.061C99.8288 49.8428 99.1701 51.2556 98.2012 52.2367C96.9998 53.4533 95.1397 54.7877 91.8456 54.7877C86.8076 54.7877 82.8547 50.6669 82.8547 45.5649C82.8547 40.463 86.8076 36.3423 91.8456 36.3423C94.5584 36.3423 96.5736 37.4412 98.0462 38.8148L100.449 36.3814C98.395 34.38 95.6823 32.8887 91.8456 32.8887C84.9087 32.8887 79.0957 38.5792 79.0957 45.6043C79.0957 52.6293 84.9087 58.3198 91.8456 58.3198C95.6047 58.3198 98.395 57.0639 100.604 54.7484C102.852 52.4722 103.588 49.2149 103.588 46.6246C103.588 45.8005 103.511 45.0548 103.394 44.4662C103.394 44.3877 91.8456 44.3877 91.8456 44.3877ZM177.956 47.0956C177.297 45.251 175.244 41.8759 171.02 41.8759C166.873 41.8759 163.385 45.2118 163.385 50.0782C163.385 54.67 166.795 58.2805 171.408 58.2805C175.128 58.2805 177.259 56.0043 178.15 54.67L175.399 52.8255C174.469 54.199 173.229 55.1017 171.408 55.1017C169.624 55.1017 168.306 54.2775 167.493 52.6293L178.305 48.116C178.344 47.9983 177.956 47.0956 177.956 47.0956ZM166.951 49.8035C166.873 46.6638 169.353 45.0156 171.174 45.0156C172.57 45.0156 173.771 45.722 174.198 46.7423C174.159 46.7817 166.951 49.8035 166.951 49.8035ZM158.153 57.7704H161.719V33.7128H158.153V57.7704ZM152.341 43.6812H152.224C151.41 42.7393 149.899 41.8759 147.961 41.8759C143.931 41.8759 140.211 45.4866 140.211 50.0782C140.211 54.67 143.931 58.2413 147.961 58.2413C149.899 58.2413 151.41 57.378 152.224 56.3968H152.341V57.5742C152.341 60.7139 150.674 62.4014 148.039 62.4014C145.869 62.4014 144.512 60.8316 143.97 59.4973L140.87 60.7922C141.761 62.9508 144.124 65.6196 148.039 65.6196C152.224 65.6196 155.712 63.1471 155.712 57.1032V42.3861H152.341V43.6812ZM148.271 55.0231C145.83 55.0231 143.775 52.9432 143.775 50.0782C143.775 47.1741 145.83 45.094 148.271 45.094C150.674 45.094 152.573 47.2133 152.573 50.0782C152.573 52.9432 150.674 55.0231 148.271 55.0231ZM194.621 33.6735H186.133V57.7312H189.66V48.6261H194.621C198.573 48.6261 202.41 45.722 202.41 41.1695C202.41 36.5778 198.534 33.6735 194.621 33.6735ZM194.699 45.2902H189.66V37.0487H194.699C197.333 37.0487 198.844 39.2857 198.844 41.1695C198.844 43.014 197.333 45.2902 194.699 45.2902ZM216.633 41.8366C214.075 41.8366 211.401 42.9747 210.315 45.5257L213.455 46.86C214.114 45.5257 215.393 45.094 216.71 45.094C218.532 45.094 220.431 46.2322 220.431 48.1945V48.4299C219.772 48.0375 218.415 47.488 216.71 47.488C213.339 47.488 209.851 49.3718 209.851 52.904C209.851 56.122 212.641 58.2021 215.741 58.2021C218.144 58.2021 219.462 57.1032 220.275 55.8473H220.392V57.6919H223.802V48.4692C223.841 44.2306 220.702 41.8366 216.633 41.8366ZM216.207 55.0231C215.044 55.0231 213.417 54.4345 213.417 52.9824C213.417 51.1378 215.431 50.3921 217.175 50.3921C218.725 50.3921 219.462 50.7454 220.431 51.2163C220.121 53.4533 218.261 55.0231 216.207 55.0231ZM236.32 42.3469L232.251 52.7862H232.134L227.91 42.3469H224.073L230.39 56.907L226.787 65.0308H230.507L240.272 42.3469H236.32ZM204.348 57.7704H207.913V33.7128H204.348V57.7704Z" fill="white"/>
<path d="M20.9245 14.5203C20.382 15.1089 20.0332 16.0508 20.0332 17.2282V59.8098C20.0332 60.9871 20.3433 61.9291 20.9245 62.5177L21.0797 62.6354L44.642 38.7741V38.2246L21.0797 14.3633L20.9245 14.5203Z" fill="url(#paint0_linear_3589_18835)"/>
<path d="M52.4747 46.741L44.6465 38.7742V38.2247L52.5135 30.2578L52.7073 30.3755L62.0082 35.7522C64.6434 37.2828 64.6434 39.7945 62.0082 41.3251L52.7073 46.6625C52.6685 46.6232 52.4747 46.741 52.4747 46.741Z" fill="url(#paint1_linear_3589_18835)"/>
<path d="M52.6596 46.6239L44.6376 38.5L20.959 62.4792C21.8503 63.421 23.2842 63.5387 24.9119 62.5969L52.6596 46.6239Z" fill="url(#paint2_linear_3589_18835)"/>
<path d="M52.6534 30.3772L24.867 14.4042C23.2393 13.4623 21.8054 13.5801 20.9141 14.5219L44.5926 38.5011L52.6534 30.3772Z" fill="url(#paint3_linear_3589_18835)"/>
<defs>
<linearGradient id="paint0_linear_3589_18835" x1="42.5292" y1="60.2362" x2="2.52345" y2="20.2654" gradientUnits="userSpaceOnUse">
<stop stop-color="#00A0FF"/>
<stop offset="0.0066" stop-color="#00A1FF"/>
<stop offset="0.2601" stop-color="#00BEFF"/>
<stop offset="0.5122" stop-color="#00D2FF"/>
<stop offset="0.7604" stop-color="#00DFFF"/>
<stop offset="1" stop-color="#00E3FF"/>
</linearGradient>
<linearGradient id="paint1_linear_3589_18835" x1="65.4114" y1="38.502" x2="7.78136" y2="38.502" gradientUnits="userSpaceOnUse">
<stop stop-color="#FFE000"/>
<stop offset="0.4087" stop-color="#FFBD00"/>
<stop offset="0.7754" stop-color="#FFA500"/>
<stop offset="1" stop-color="#FF9C00"/>
</linearGradient>
<linearGradient id="paint2_linear_3589_18835" x1="32.4195" y1="50.1451" x2="-21.8314" y2="-4.05856" gradientUnits="userSpaceOnUse">
<stop stop-color="#FF3A44"/>
<stop offset="1" stop-color="#C31162"/>
</linearGradient>
<linearGradient id="paint3_linear_3589_18835" x1="-0.903296" y1="60.6041" x2="23.3222" y2="36.3998" gradientUnits="userSpaceOnUse">
<stop stop-color="#32A071"/>
<stop offset="0.0685" stop-color="#2DA771"/>
<stop offset="0.4762" stop-color="#15CF74"/>
<stop offset="0.8009" stop-color="#06E775"/>
<stop offset="1" stop-color="#00F076"/>
</linearGradient>
</defs>
</svg>

<svg xmlns="http://www.w3.org/2000/svg" width="259" height="77" fill="none" viewBox="0 0 259 77"><path fill="#242424" d="M248.207 77H10.608c-5.232 0-9.495-4.317-9.495-9.615V9.655c0-5.299 4.263-9.616 9.495-9.616h237.599c5.233 0 9.495 4.317 9.495 9.615v57.73c0 5.299-4.301 9.616-9.495 9.616"/><path fill="#fff" d="M248.208 1.534c4.417 0 7.983 3.611 7.983 8.085v57.73c0 4.474-3.566 8.085-7.983 8.085h-237.6c-4.418 0-7.983-3.61-7.983-8.085V9.62c0-4.474 3.565-8.085 7.983-8.085zm0-1.53h-237.6c-5.232 0-9.495 4.317-9.495 9.615v57.73c0 5.299 4.263 9.616 9.495 9.616h237.6c5.231 0 9.494-4.317 9.494-9.616V9.62c0-5.298-4.301-9.615-9.494-9.615"/><path fill="#fff" stroke="#fff" stroke-miterlimit="10" stroke-width=".199" d="M91.22 19.741c0 1.61-.464 2.904-1.394 3.846-1.085 1.138-2.48 1.727-4.186 1.727-1.627 0-3.061-.589-4.185-1.727-1.163-1.177-1.744-2.59-1.744-4.317s.581-3.14 1.744-4.278c1.162-1.138 2.558-1.726 4.185-1.726q1.221 0 2.326.47c.736.314 1.356.746 1.782 1.296l-1.008 1.02c-.774-.903-1.782-1.373-3.138-1.373a4.22 4.22 0 0 0-3.1 1.295c-.892.863-1.318 1.962-1.318 3.335 0 1.374.426 2.473 1.317 3.336.891.864 1.938 1.296 3.1 1.296 1.28 0 2.326-.432 3.178-1.296.543-.55.892-1.334.97-2.354h-4.147v-1.374h5.502c.117.235.117.51.117.824ZM99.986 14.913h-5.193v3.65h4.69v1.373h-4.69v3.65h5.193V25H93.32V13.461h6.666zM106.174 25.038h-1.473V14.913h-3.178V13.5h7.829v1.413h-3.178zM115.012 25.038V13.5h1.472v11.538zM122.996 25.038h-1.472V14.913h-3.178V13.5h7.828v1.413h-3.178zM141.02 23.548q-1.686 1.767-4.186 1.766t-4.185-1.766c-1.124-1.177-1.667-2.59-1.667-4.278s.543-3.14 1.667-4.277q1.685-1.767 4.185-1.766t4.186 1.766c1.124 1.177 1.705 2.59 1.705 4.277-.039 1.688-.581 3.1-1.705 4.278Zm-7.286-.981c.852.863 1.86 1.295 3.1 1.295a4.22 4.22 0 0 0 3.1-1.295c.853-.863 1.279-1.962 1.279-3.336s-.426-2.472-1.279-3.336c-.852-.863-1.86-1.295-3.1-1.295s-2.248.432-3.1 1.295c-.853.864-1.279 1.963-1.279 3.336 0 1.374.426 2.473 1.279 3.336ZM144.734 25.038V13.5h1.784l5.541 8.987h.078l-.078-2.237V13.5h1.473v11.538h-1.512l-5.812-9.419h-.078l.078 2.237v7.182z"/><path fill="#fff" d="M130.599 41.876c-4.456 0-8.099 3.454-8.099 8.202 0 4.71 3.643 8.203 8.099 8.203s8.138-3.493 8.138-8.203c0-4.748-3.642-8.202-8.138-8.202m0 13.147c-2.441 0-4.573-2.04-4.573-4.945 0-2.943 2.093-4.945 4.573-4.945s4.573 2.002 4.573 4.945c0 2.904-2.131 4.945-4.573 4.945m-17.671-13.147c-4.457 0-8.1 3.454-8.1 8.202 0 4.71 3.643 8.203 8.1 8.203s8.099-3.493 8.099-8.203c0-4.748-3.643-8.202-8.099-8.202m0 13.147c-2.442 0-4.573-2.04-4.573-4.945 0-2.943 2.131-4.945 4.573-4.945 2.441 0 4.573 2.002 4.573 4.945-.039 2.904-2.132 4.945-4.573 4.945M91.846 44.388v3.492h8.215c-.232 1.963-.89 3.376-1.86 4.357-1.201 1.216-3.061 2.55-6.355 2.55-5.038 0-8.991-4.12-8.991-9.222s3.953-9.223 8.99-9.223c2.713 0 4.729 1.1 6.201 2.473l2.403-2.434c-2.054-2.001-4.767-3.492-8.603-3.492-6.937 0-12.75 5.69-12.75 12.715s5.813 12.716 12.75 12.716c3.759 0 6.549-1.256 8.758-3.572 2.248-2.276 2.984-5.533 2.984-8.123 0-.825-.077-1.57-.194-2.159 0-.078-11.548-.078-11.548-.078m86.11 2.708c-.659-1.845-2.712-5.22-6.936-5.22-4.147 0-7.635 3.336-7.635 8.202 0 4.592 3.41 8.203 8.023 8.203 3.72 0 5.851-2.277 6.742-3.611l-2.751-1.845c-.93 1.374-2.17 2.277-3.991 2.277-1.784 0-3.102-.824-3.915-2.473l10.812-4.513c.039-.118-.349-1.02-.349-1.02m-11.005 2.708c-.078-3.14 2.402-4.788 4.223-4.788 1.396 0 2.597.706 3.024 1.726-.039.04-7.247 3.062-7.247 3.062m-8.798 7.966h3.566V33.713h-3.566zm-5.812-14.089h-.117c-.814-.942-2.325-1.805-4.263-1.805-4.03 0-7.75 3.61-7.75 8.202s3.72 8.163 7.75 8.163c1.938 0 3.449-.863 4.263-1.844h.117v1.177c0 3.14-1.667 4.827-4.302 4.827-2.17 0-3.527-1.57-4.069-2.904l-3.1 1.295c.891 2.159 3.254 4.828 7.169 4.828 4.185 0 7.673-2.473 7.673-8.517V42.386h-3.371zm-4.07 11.342c-2.441 0-4.496-2.08-4.496-4.945 0-2.904 2.055-4.984 4.496-4.984 2.403 0 4.302 2.12 4.302 4.984 0 2.865-1.899 4.945-4.302 4.945m46.35-21.35h-8.488v24.058h3.527v-9.105h4.961c3.952 0 7.789-2.904 7.789-7.456 0-4.592-3.876-7.497-7.789-7.497m.078 11.617h-5.039V37.05h5.039c2.634 0 4.145 2.237 4.145 4.12 0 1.845-1.511 4.121-4.145 4.121m21.934-3.453c-2.558 0-5.232 1.138-6.318 3.689l3.14 1.334c.659-1.334 1.938-1.766 3.255-1.766 1.822 0 3.721 1.138 3.721 3.1v.236c-.659-.392-2.016-.942-3.721-.942-3.371 0-6.859 1.884-6.859 5.416 0 3.218 2.79 5.298 5.89 5.298 2.403 0 3.721-1.099 4.534-2.355h.117v1.845h3.41v-9.223c.039-4.238-3.1-6.632-7.169-6.632m-.426 13.186c-1.163 0-2.79-.589-2.79-2.04 0-1.845 2.014-2.59 3.758-2.59 1.55 0 2.287.352 3.256.823-.31 2.237-2.17 3.807-4.224 3.807m20.113-12.676-4.069 10.44h-.117l-4.224-10.44h-3.837l6.317 14.56-3.603 8.124h3.72l9.765-22.684zM204.348 57.77h3.565V33.713h-3.565z"/><path fill="url(#a)" d="M20.925 14.52c-.543.589-.892 1.53-.892 2.708V59.81c0 1.177.31 2.12.891 2.708l.156.117 23.562-23.86v-.55L21.08 14.363z"/><path fill="url(#b)" d="m52.475 46.741-7.828-7.967v-.55l7.867-7.966.193.117 9.301 5.377c2.635 1.53 2.635 4.042 0 5.573l-9.3 5.337c-.04-.039-.233.079-.233.079"/><path fill="url(#c)" d="M52.66 46.624 44.638 38.5 20.959 62.48c.891.941 2.325 1.059 3.953.117z"/><path fill="url(#d)" d="M52.653 30.377 24.867 14.404c-1.628-.942-3.062-.824-3.953.118l23.679 23.98z"/><defs><linearGradient id="a" x1="42.529" x2="2.523" y1="60.236" y2="20.265" gradientUnits="userSpaceOnUse"><stop stop-color="#00a0ff"/><stop offset=".007" stop-color="#00a1ff"/><stop offset=".26" stop-color="#00beff"/><stop offset=".512" stop-color="#00d2ff"/><stop offset=".76" stop-color="#00dfff"/><stop offset="1" stop-color="#00e3ff"/></linearGradient><linearGradient id="b" x1="65.411" x2="7.781" y1="38.502" y2="38.502" gradientUnits="userSpaceOnUse"><stop stop-color="#ffe000"/><stop offset=".409" stop-color="#ffbd00"/><stop offset=".775" stop-color="orange"/><stop offset="1" stop-color="#ff9c00"/></linearGradient><linearGradient id="c" x1="32.419" x2="-21.831" y1="50.145" y2="-4.059" gradientUnits="userSpaceOnUse"><stop stop-color="#ff3a44"/><stop offset="1" stop-color="#c31162"/></linearGradient><linearGradient id="d" x1="-.903" x2="23.322" y1="60.604" y2="36.4" gradientUnits="userSpaceOnUse"><stop stop-color="#32a071"/><stop offset=".069" stop-color="#2da771"/><stop offset=".476" stop-color="#15cf74"/><stop offset=".801" stop-color="#06e775"/><stop offset="1" stop-color="#00f076"/></linearGradient></defs></svg>
